icons/cloud-outline.svg

<svg xmlns="http://www.w3.org/2000/svg" width="24" height="24" viewBox="0 0 24 24">
  <path d="M12.2455902,3.00398632 C8.52762508,3.12063681 5.4117318,5.78500472 4.66919046,9.36089212 L4.646,9.48 L4.56984355,9.51249345 C2.43448394,10.4577805 1,12.5890868 1,15 L1.0043751,15.2308104 C1.11197825,18.064907 3.19270368,20.4215684 5.94889404,20.9081606 L6.166,20.942 L6.18145173,20.9482064 C6.28147754,20.9817932 6.38859112,21 6.5,21 L18,21 L18.2241536,20.9948042 C20.9044736,20.8633628 23,18.6686219 23,16 L22.9949844,15.7749408 C22.9183208,14.0574067 21.9683651,12.5292172 20.5287365,11.6859719 L20.472,11.654 L20.4920144,11.3602705 C20.4973322,11.2405319 20.5,11.1204206 20.5,11 C20.5,6.581722 16.918278,3 12.5,3 L12.2455902,3.00398632 Z M12.5,5 C15.8137085,5 18.5,7.6862915 18.5,11 C18.5,11.3626762 18.4679372,11.7207805 18.4047462,12.0716539 C18.3187909,12.5489278 18.5876682,13.0190841 19.0426136,13.1870228 C20.2086704,13.6174613 21,14.7340634 21,16 C21,17.600955 19.7424301,18.9180655 18.1505472,18.9963105 L17.9754867,19.0003005 L6.722,19 L6.65802984,18.9878352 L6.59904064,18.980229 C4.56515494,18.7784159 3,17.0601278 3,15 C3,13.2264394 4.16485155,11.6792823 5.83545006,11.171892 C6.21795931,11.0557172 6.49452585,10.7228961 6.53871277,10.3255833 C6.87436978,7.30747742 9.43685135,5 12.5,5 Z"/>
</svg>

<svg xmlns="http://www.w3.org/2000/svg" viewBox="0 0 24 24">
  <path d="M12.25 3a8 8 0 0 0-7.58 6.36l-.02.12-.08.03A6 6 0 0 0 1 15v.23a6 6 0 0 0 4.95 5.68l.22.03h.01c.1.04.2.06.32.06h11.72A5 5 0 0 0 23 16v-.23a5 5 0 0 0-2.47-4.08l-.06-.04.02-.29.01-.36a8 8 0 0 0-8-8h-.25zm.25 2a6 6 0 0 1 5.9 7.07 1 1 0 0 0 .64 1.12 3 3 0 0 1-.89 5.8l-.17.01H6.72l-.06-.01-.06-.01a4 4 0 0 1-.76-7.8 1 1 0 0 0 .7-.85A6 6 0 0 1 12.5 5z"/>
</svg>
